resources/haticons/SVG/flip_to_front.svg

<!-- Generated by IcoMoon.io -->
<svg version="1.1" xmlns="http://www.w3.org/2000/svg" width="24" height="24" viewBox="0 0 24 24">
<title>flip_to_front</title>
<path d="M6.984 21v-2.016h2.016v2.016h-2.016zM11.016 21v-2.016h1.969v2.016h-1.969zM18.984 15v-9.984h-9.984v9.984h9.984zM18.984 3q0.797 0 1.406 0.609t0.609 1.406v9.984q0 0.797-0.609 1.406t-1.406 0.609h-9.984q-0.844 0-1.43-0.586t-0.586-1.43v-9.984q0-0.844 0.586-1.43t1.43-0.586h9.984zM15 21v-2.016h2.016v2.016h-2.016zM3 9v-2.016h2.016v2.016h-2.016zM5.016 21q-0.844 0-1.43-0.586t-0.586-1.43h2.016v2.016zM3 17.016v-2.016h2.016v2.016h-2.016zM3 12.984v-1.969h2.016v1.969h-2.016z"></path>
</svg>

<svg xmlns="http://www.w3.org/2000/svg" width="24" height="24"><path d="M6.984 21v-2.016H9V21H6.984zm4.032 0v-2.016h1.969V21h-1.969zm7.968-6V5.016H9V15h9.984zm0-12q.797 0 1.406.609t.609 1.406v9.984q0 .797-.609 1.406t-1.406.609H9q-.844 0-1.43-.586t-.586-1.43V5.014q0-.844.586-1.43T9 2.998h9.984zM15 21v-2.016h2.016V21H15zM3 9V6.984h2.016V9H3zm2.016 12q-.844 0-1.43-.586T3 18.984h2.016V21zM3 17.016V15h2.016v2.016H3zm0-4.032v-1.969h2.016v1.969H3z"/></svg>
